X: 292
T: Mud Fence
B: canberra pickers and fiddlers
B: tunes
M:C|
L:1/8
R: reel
Q: 1/4=100
K:D
V:1 
D2f2 fedc|B2G2g2e2|D2A2 fedf|edcB A2A2|
D2f2 fedc|B2G2g2fg|"*"a2A2c2Bc|dgfe d2A2:|
D2[F2A2]G2B2|A2d2 fedc|[G2B2][GB][GB] [FA][GA][FA][DA]|[E2A2][EA][FA] [EA][GA][FA][EA]|
D2 AF G2B2|A2d2 fedf|gfec ABcA|"**"d2de d2A2:|
|"*"a2Ac B2c2|]|"**"dBAF D4||
% abcbook-tune_id 63da593492b9361dbbc7ea56
% abcbook-tune_composer_id 
% abcbook-link-0 https://www.youtube.com/watch?v=X4AlxBicWXU
% abcbook-link-end-at-0 88
% abcbook-boost 0
% abcbook-difficulty 0
% abcbook-tags canberra pickers and fiddlers,old time tunes,© free
% abcbook-tablature 
% abcbook-transpose 
% abcbook-tuning ADAE
% abcbook-lastupdated 1691887883277
% abcbook-src-url https://tunebook.net/scrape/tunes.abc
% abcbook-soundfonts 
% abcbook-repeats 1
%%gchordfont "itim-music,Itim" 20

